!!!OTL@@DE: Vivat Bachus!
!!!COM: Componist unbekannt
!!!OMD: Fr&ouml;hlich
!!!LYR: Bretzner, Christoph Friedrich
!!!LDT: 1781
!!!OCL: Erk, Ludwig
!!!GCO: Deutscher Liederschatz, Band 1
**kern	**kern	**kern
*staff3	*staff2	*staff1
*Ipiano	*Ipiano	*Ivox
*>[A,A1,A,A2,B]	*>[A,A1,A,A2,B]	*>[A,A1,A,A2,B]
*>norep[A,A2,B]	*>norep[A,A2,B]	*>norep[A,A2,B]
*>A	*>A	*>A
=1-	=1-	=1-
*clefF4	*clefG2	*clefG2
*k[f#]	*k[f#]	*k[f#]
*G:	*G:	*G:
*M2/4	*M2/4	*M2/4
*MM120	*MM120	*MM120
8.GG/ 8.G/L	8.B/ 8.d/ 8.g/L	8.g/
16G/k	16g/k	16g/
8G/	8g/	8g/
8G/J	8g/J	8g/
=2	=2	=2
8G\L	8g/L	8g/
8D\	8d/	8d/
8BB\	8B/	8B/
8D\J	8d/J	8d/
=3	=3	=3
4GG/ 4G/	4B/ 4d/ 4g/	4g/
4DD/ 4D/	4d/ 4f#/ 4a/ 4dd/	4dd\
=4	=4	=4
4GG/	4d/ 4g/ 4b/	4b\
4GG/ 4G/	4B/ 4d/ 4g/	4g/
=5	=5	=5
4CC#/ 4C#/	4.e/ 4.g/ 4.a/	4.a/
4AAA/ 4AA/	.	.
.	8c#/ 8e/ 8a/	8a/
=6	=6	=6
4DD/ 4D/	4.d/ 4.f#/ 4.a/	4.a/
4GG/	.	.
.	8B/ 8e/ 8g/	8g/
=7	=7	=7
4AA/	4A/ 4d/ 4f#/	4f#/
4AAA/ 4AA/	4G/ 4c#/ 4e/	4e/
=8	=8	=8
*>A1	*>A1	*>A1
=1-	=1-	=1-
4DD/ 4D/	4F#/ 4A/ 4d/	4d/
4r	4r	4r
=9:|!	=9:|!	=9:|!
*>A2	*>A2	*>A2
=1-	=1-	=1-
4DD/ 4D/	4F#/ 4A/ 4d/	4d/
8r	8r	8r
8D\	8e/ 8g/	8g/
=10	=10	=10
*>B	*>B	*>B
4DD/	(8d/ 8f#/L	8f#/L
.	8c#/) 8e/	8e/J
8r	8d'/ 8f#'/	8f#/
8D\	8e'/ 8g'/J	8g/
=11	=11	=11
4DD/	(8f#/ 8a/L	8a/L
.	8g/) 8b/	8b/J
8r	8f#'/ 8a'/	8a/
8D\	8e'/ 8g'/J	8g/
=12	=12	=12
4DD/	(8d/ 8f#/L	8f#/L
.	8c#/) 8e/	8e/J
8r	8d'/ 8f#'/	8f#/
8D\	8e'/ 8g'/J	8g/
=13	=13	=13
4DD/	(8f#/ 8a/L	8a/L
.	8g/) 8b/	8b/J
8r	8f#'/ 8a'/	8a/
8D\	8e'/ 8g'/J	8g/
=14	=14	=14
4AA/	8d/ 8f#/L	8f#/
.	8d/ 8f#/	8f#/
4AA\ 4A\	8c#/ 8e/ 8a/	8a/
.	8c#/ 8e/ 8a/J	8a/
=15	=15	=15
4DD;/ 4D;/	4d;/ 4f#;/ 4a;/ 4dd;/	4dd;\
8r	8r	8r
8D\	8a\ 8ccn\	8ccn\
=16	=16	=16
4GG/	(8g/ 8b/L	8b/L
.	8f#/) 8a/	8a/J
8r	8g'/ 8b'/	8b\
8G\	8a'/ 8cc'/J	8cc\
=17	=17	=17
4GG/	8b\ (8dd\L	8dd\L
.	8cc\ 8ee\)	8ee\J
8r	8b'\ 8dd'\	8dd\
8G\	8a'\ 8cc'\J	8cc\
=18	=18	=18
4GG/	(8g/ 8b/L	8b/L
.	8f#/) 8a/	8a/J
8r	8g'/ 8b'/	8b\
8G\	8a'/ 8cc'/J	8cc\
=19	=19	=19
4GG/	8b\ (8dd\L	8dd\L
.	8cc\ 8ee\)	8ee\J
8r	8b'\ 8dd'\	8dd\
8D\ 8F#\	8a'\ 8cc'\J	8cc\
=20	=20	=20
8G\L	8g/ 8b/L	8b\
8G\ 8B\	8g/ 8b/	8b\
8D\ 8c\	8f#/ 8a/ 8dd/	8dd\
8D\ 8c\J	8f#/ 8a/ 8dd/J	8dd\
=21	=21	=21
4GG;/	4B;/ 4d;/ 4g;/	4g;/
4r	4r	4r
=22	=22	=22
4GG/ 4G/	4r	8.g/
.	.	16g/
4r	4B/ 4d/ 4g/	8g/
.	.	8g/
=23	=23	=23
4DD/ 4D/	4r	8f#/
.	.	8a/
4r	4A/ 4d/ 4f#/	4d/
=24	=24	=24
4FF#/ 4F#/	4r	8.cc\
.	.	16cc\
4r	4c/ 4d/ 4a/	8cc\
.	.	8cc\
=25	=25	=25
[4GG/ [4G/	4r	8b\
.	.	8dd\
8GG;/] 8G;/]	8B;/ 8d;/ 8g;/	8g;/
8D\	8a/ 8cc/	8cc\
=26	=26	=26
4GG/	(8g/ 8b/L	8b/L
.	8f#/) 8a/	8a/J
8r	8g'/ 8b'/	8b\
8G\	8a'/ 8cc'/J	8cc\
=27	=27	=27
4GG/	8b\ (8dd\L	8dd\L
.	8cc\ 8ee\)	8ee\J
8r	8b'\ 8dd'\	8dd\
8G\	8a'\ 8cc'\J	8cc\
=28	=28	=28
4GG/	(8g/ 8b/L	8b/L
.	8f#/) 8a/	8a/J
8r	8g'/ 8b'/	8b\
8G\	8a'/ 8cc'/J	8cc\
=29	=29	=29
4GG/	8b\ (8dd\L	8dd\L
.	8cc\ 8ee\)	8ee\J
8r	8b'\ 8dd'\	8dd\
8D\ 8F#\	8a'\ 8cc'\J	8cc\
=30	=30	=30
4G\	4d/ 4g/ 4b/	4b\
4D\	8c/ 8d/ 8f#/ 8a/L	8a/
.	8c/ 8d/ 8f#/ 8a/J	8a/
=31	=31	=31
4GG/	4B/ 4d/ 4g/	4g/
8r	8r	8r
8D\	8d/	8d/
=32	=32	=32
4G\	4B/ 4d/ 4g/	4g/
4E\	4B/ 4g/ 4b/	4b\
=33	=33	=33
4.BB/	4.d/ 4.g/ 4.dd/	4.dd\
8C/	8e/ 8a/ 8cc/	8cc\
=34	=34	=34
8D\	8d/ 8g/ 8b/L	8b\
8r	8d/ 8g/ 8b/	8b\
8D\	8c/ 8d/ 8f#/ 8a/	8a/
8r	8c/ 8d/ 8f#/ 8a/J	8a/
=35	=35	=35
4GG/	4B/ 4d/ 4g/	4g/
8r	8r	8r
8D\	8d/	8d/
=36	=36	=36
4GG/ 4G/	4B/ 4d/ 4g/	4g/
4EE/ 4E/	4B/ 4g/ 4b/	4b\
=37	=37	=37
4.BBB/ 4.BB/	4.d/ 4.g/ 4.dd/	4.dd\
8CC/ 8C/	8e/ 8g/ 8cc/	8cc\
=38	=38	=38
8DD/ 8D/	8d/ 8g/ 8b/L	8b\
8r	8d/ 8g/ 8b/	8b\
8DD/ 8D/	8c/ 8d/ 8f#/ 8a/	8a/
8r	8c/ 8d/ 8f#/ 8a/J	8a/
=39	=39	=39
4GG/ 4G/	4B/ 4d/ 4g/	4g/
4r	4r	4r
==	==	==
*-	*-	*-
!!!ENC: Craig Stuart Sapp
!!!END: 2004/06/28/
!!!EFL: 195/651
